X:1
T:All to Jesus Bringing
T:All to Jesus Bringing
T:Viola E. Clark
T:Lula Benton, 1922
T:Public Domain Courtesy of the Cyber Hymnal™
T:Public Domain Courtesy of the Cyber Hymnal™
C:Viola E. Clark
Z:Public Domain
Z:Courtesy of the Cyber Hymnal™
%%score ( 1 2 ) ( 3 4 )
L:1/8
Q:1/4=95
M:4/4
K:Ab
V:1 treble 
V:2 treble 
V:3 bass 
V:4 bass 
V:1
 [CE][CE] | [CF][CG] [CA]2 [Ec]2 [Ec][EB] | [FA][EG] [DF]2 [CE]2 [CE][CE] | %3
w: 1.~All to|Je- sus bring- ing, With de-|light and sing- ing, For to|
w: 2.~All to|Je- sus bring- ing, While His|praise is ring- ing, From the|
w: 3.~All to|Je- sus bring- ing, To Him|ev- er cling- ing, Daunt- less,|
 [EA][EA][EA][EA] [FA]2 [Ec][Ec] | [EB]6 [CE][CE] | [CF][CG] [CA]2 [Ec]2 [Ec][EB] | %6
w: Him a- lone each bless- ing we|owe; He hath|borne our sad- ness, Giv- en|
w: depths of grate- ful hearts for His|love; Sin and|needs con- fess- ing, Pray- ing|
w: al- though doubts and fears oft as-|sail; On His|strength re- ly- ing, Ne- ver|
 [FA][EG] [DF]2 [CE]2 [EA][Ec] | [Ae][Ae][Ac][Ae] [Ac]2 [EA][EB] | [EA]6 ||"^Refrain" z2 | %10
w: light and glad- ness, And a|tru- er friend we ne- ver shall|know.||
w: for His bless- ing, As we|strive by faith to fol- low a-|bove.||
w: Him de- ny- ing, We are|safe, for Je- sus ne- ver can|fail.||
 [Ec]2 [Ec]2 [Ec][Ee][Fd][EB] | ([CA][CA][CA][CB] [Fc]2) z2 | [Ee]2 [Ee]2 [Ee][Ed][Ec][=DA] | %13
w: |||
w: All to Je- sus we will|bring, * * * *|Tal- ents, love, and earth- ly|
w: |||
 ([EB][EB][EB][Ec] [EB]2) z2 | [Ec]2 [Ec]2 [Ec][Ec][Ed][Ee] | ([Fd][Fd][Fd][Fd] [Fd]2) z2 | %16
w: |||
w: store; * * * *|Ser- ving Him, our on- ly|king, * * * *|
w: |||
 [EB]2 [Ge]2 [Ge][Ac]A[GB] | A6 |] %18
w: ||
w: Prais- ing him for- ev- er-|more!|
w: ||
V:2
 x2 | x8 | x8 | x8 | x8 | x8 | x8 | x8 | x6 || x2 | x8 | x8 | x8 | x8 | x8 | x8 | x6 A x | %17
 (AFEF E2) |] %18
V:3
 [A,,A,][A,,A,] | [A,,A,][A,,A,] [A,,A,]2 [A,,A,]2 [A,,A,][C,A,] | %2
 [D,A,][D,A,] [D,A,]2 [A,,A,]2 [A,C][A,C] | [A,C][A,C][A,C][A,C] [F,C]2 [C,A,][C,A,] | %4
 [E,G,]6 [A,,A,][A,,A,] | [A,,A,][A,,A,] [A,,A,]2 [A,,A,]2 [A,,A,][C,A,] | %6
 [D,A,][D,A,] [D,A,]2 [A,,A,]2 [A,C]A, | [A,C][A,C][A,E][A,C] [E,E]2 [E,C][E,D] | [A,,C]6 || %9
 (E,C,) | A,2 A,2 [A,,A,][C,A,][D,A,][E,G,] | A,A,A,A, A,2 x2 | A,2 A,2 [C,A,][E,G,]A,[F,B,] | %13
 G,G,G,A, G,2 x2 | A,2 A,2 [A,,A,][A,,A,][B,,G,][C,A,] | A,A,A,A, A,2 x2 | %16
 G,2 B,2 [E,B,][F,A,][E,C][E,D] | (CCCD C2) |] %18
V:4
 x2 | x8 | x8 | x8 | x8 | x8 | x7 A, | x8 | x6 || x2 | A,,4- x4 | F,6 (E,D,) | C,4- A, x3 | %13
 E,6 (E,C,) | A,,4- x4 | D,6 (A,F,) | E,4- x4 | A,,6 |] %18

